X:1380
T:Bergamasco e Tresca
C:R. Tesi: Il ballo dela lepre 8e+f
C:ABCD -ABCD - Tresca
S:Organetto diatonico
M:2/4
L:1/16
K:G
d2c2|:BGBd BGBd|cBcd cBAG|\
FGAB cBdc|BAGF GABc|
dedc BcdB|cBcd cBAG|\
FGAB dcBA|1 G4 d2c2:|2 GBAG FEDC||
|:B,DGD B,DGD|CEGE CEGE|\
DFAF DFAF|GBAG FEDC|
B,DGD B,DGD|CEGE CEGE|\
DFAF DFAF|1 G4 D2C2:|2 G4 ABcd||
|:e2=f2 e2d2|cdcB ABcd|1 edcd cBcd|\
B2A2 ABcd:|2 edcd cBcB| A4 A2B2||
|:cecA cecA|BdBG BdBG|\
cecA BdBG|B2A2 A2B2|
cecA cecA|BdBG BdBG|\
cecA BdBG|1 A4 ABcd:|2 A4||
P:Tresca
z2 Bd B2G2|A2Ac A2F2|G2Bd B2G2|\
FGA2 DEF2|G3d d2d2|\
c2Ac e2e2|dBGB d2d2|
cAFA c2c2|dBGB d2d2|\
c2Ac e2e2|dBGB d2d2|dedc BcBA||\
G2GB d2d2|c2Ac ecec|
dBGB dBdB|cAFA cAcA|\
dBGB dBdB|ecAc ecec|dBGB d2d2|
dedc BcBA|G3B d2d2|ceee ceee|\
Bddd Bddd|Addd Addd|Bddd Bddd|
ceee ceee|Bddd Bddd|dedc BcBA|\
GFGA Bcde|(3d2c2d2 e2d2|g8||


